X:1
T:Uti vår hage
T:Hugo Alfvén (1872-1960)
T:Ej för langsamt 
T:Uti vår hage
T:Svensk folkvisa
T:Finale-Eingabe: John Christensen Copyleft 2014
T:Finale-Eingabe: John Christensen Copyleft 2014
T:Finale-Eingabe: John Christensen Copyleft 2014
T:Finale-Eingabe: John Christensen Copyleft 2014
C:Hugo Alfvén
Z:Finale-Eingabe: John Christensen
Z:Copyleft 2014
%%score [ 1 2 3 4 ]
L:1/8
Q:1/4=120
M:3/4
K:Ab
V:1 treble nm="Sopran" snm="S"
V:2 treble nm="Alt" snm="A"
V:3 treble-8 nm="Tenor" snm="T"
V:4 bass nm="Bass" snm="B"
V:1
!p! F2 A2 B2 | A3 G F2 | A2 A2 B2 | c4 e2 | c4 A2 | c4 z2 | A3 A A2 | A2 B2 c2 | c2 B2 A2 | B4 c2 | %10
w: 1. Ut- i vår|ha- ge där|wä- xa blå|bär. Kom|hjär- tans|fröjd!|Vill du mig|nå- got, så|träf- fas vi|där. _|
w: 2. Fåg- ra små|blom- mor där|bju- da till|dans. Kom|hjär- tans|fröjd!|Vill du så|bin- der jag|åt dig en|krans. Kom|
w: 3. Ut- i vår|ha- ge finns|blom- mor och|bär. Kom|hjär- tans|fröjd!|Men ut- av|al- la du|kär- rast mig|är. _|
 A2 A>G F>A | G2 =E2 B2 | A2 A>G F>A | G2 C2 E2 | F2 c3 B | c2 G2 B2 | A4 G2 |1,2 F4 z2 :|3 %18
w: ||||||||
w: lil- jor _ och _|aqui- le- ja,|ro- sor och sa- li-|ve- ja, Kom|lju- va krus-|myn- ta, kom|hjär- tans|fröjd!|
w: _ _ _ _ _||||||||
 F4 c2 ||[K:F] A2 A>G F>A | G2 C2 B2 | A2 A>G F>A | G2 C2 E2 | F2 c3 B | c2 G2"^rit." B2 | A4 G2 | %26
w: ||||||||
w: fröjd! Kom|lil- jor och a- qui-|le- ja, kom|ro- sor och sa- li-|ve- ja! Kom|lju- va krus-|myn- ta, kom|hjär- tans|
w: ||||||||
 F6 |] %27
w: |
w: fröjd!|
w: |
V:2
!p! C2 F2 F2 | F3 E D2 | C2 F2 G2 | A4 [G=B]2 | [Ac]4 F2 | A4 z2 | F3 F F2 | F2 G2 A2 | A2 G2 F2 | %9
w: 1. Ut- i vår|ha- ge där|wä- xa blå|bär. Kom|hjär- tans|fröjd!|Vill du mig|nå- got så|träf- fas vi|
w: 2. Fåg- ra små|blom- mor där|bju- da till|dans. Kom|hjär- tans|fröjd!|Vill du så|bin- der jag|åt dig en|
w: 3. Ut- i vår|ha- ge finns|blom- mor och|bär. Kom|hjär- tans|fröjd!|Men ut- av|al- la du|kä- rast mig|
 G4 G2 | F2 F2 C2 | C>=D =E2 E2 | F2 F2 C2 | C>=D =E2 C2 | C2 F3 F | F2 D2 C2 | C4 =E2 |1,2 %17
w: där. _||||||||
w: krans. Kom|lil- jor och|a- qui- le- ja,|ro- sor och|sa- li- ve- ja,|lju- va krus-|myn- ta, kom|hjär- tans|
w: är. _|_ _ _|||||||
 C4 z2 :|3 F4 C2 ||[K:F] F2 F2 C2 | C>D E2 (DE) | F2 F>C C>C | (C>D) E2 C2 | C2 F3 F | F2 F2 F2 | %25
w: ||||||||
w: fröjd!|fröjd! Kom|lil- jor och|a- qui- le- ja, _|ro- sor och sa- li-|ve _ ja! Kom|lju- va krus-|myn- ta, kom|
w: ||||||||
 F4 E2 | C6 |] %27
w: ||
w: hjär- tans|fröjd!|
w: ||
V:3
!p! A2 c2 d2 | c3 B A2 | A2 e2 d2 | c4 d2 | e4 d2 | e4 z2 | c3 c c2 | c2 e2 e2 | =d2 _d2 d2 | %9
w: 1. Ut- i vår|ha- ge där|wä- xa blå|bär. Kom|hjär- tans|fröjd!|Vill du mig|nå- got, så|träf- fas vi|
w: 2. Fåg- ra små|blom- mor där|bju- da till|dans. Kom|hjär- tans|fröjd!|Vill du, så|bin- der jåg|åt dig en|
w: 3. Ut- i vår|ha- ge finns|blom- mor och|bär. Kom|hjär- tans|fröjd!|Men ut av|al- la du|kä- rast mig|
 e4 c2 | c4 e2 | =E>F G2 G2 | c4 c2 | =E>F G2 B2 | A2 =A3 G | A2 F2 =E2 | F4 B2 |1,2 A4 z2 :|3 %18
w: där. _|||||||||
w: krans. Kom|lil- jor|a- qui- le- ja,|ro- sor,|sa- li- vi- a,|lju- va krus-|myn- ta, kom|hjär- tans|fröjd!|
w: är. _|_ _||||||||
 A4 c2 ||[K:F] c2 c>B A>F | (E>F G2 G2) | A2 c>B A>F | E>F G2 B2 | A2 A3 G | _A2 _d2 d2 | %25
w: |||||||
w: fröjd! Kom|lil- jor och a- qui-|le _ _ ja,|ro- sor och sa- li-|ve- * ja! Kom|lju- va krus-|myn- ta, kom|
w: |||||||
 c>d e>c BB | A6 |] %27
w: ||
w: kru- sa- myn- ta, hjär- tans|fröjd!|
w: ||
V:4
!p! F,2 F,2 F,2 | F,3 C, D,2 | F,2 C2 B,2 | A,4 E,2 | A,4 D,2 | [A,,A,]4 z2 | %6
w: 1. Ut- i vår|ha- ge där|wä- xa blå|bär. Kom|hjär- tans|fröjd!|
w: 2. Fåg- ra små|blom- mor där|bju- da till|dans. Kom|hjär- tans|fröjd!|
w: 3. Ut- i vår|ha- ge finns|blom- mor och|bär. Kom|hjär- tans|fröjd!|
 [F,,F,]3 [A,,F,] [C,F,]2 | F,2 E,2 A,2 | G,2 B,2 B,2 | E,4 =E,2 | F,2 F,>G, A,>F, | C,2 C,2 C2 | %12
w: Vill du mig|nå- got så|träf- fas vi|där. _|||
w: Vill du, så|bin- der jå|åt dig en|krans. Kom|lil- jor och a- qui-|le- ja, kom|
w: Men ut- av|al- la du|kä- rast mig|är. _|_ _ _ _ _||
 F,2 F,>G, A,>F, | C,2 C,2 C,2 | F,2 E,3 D, | C,2 B,,2 G,,2 | A,,>G,, A,,B,, D,C, |1,2 %17
w: |||||
w: ro- sor och sa- li-|vi- a, kom|lju- va krus-|myn- ta, kom|krus- myn- ta _ hjär- tans|
w: |||||
 [F,,F,]4 z2 :|3 F,4 C,2 ||[K:F] [F,,C,]6 | [F,,C,]4 [F,,C,]2 | [F,,C,]6 | [F,,C,]4 [F,,C,]2 | %23
w: ||||||
w: fröjd!|fröjd! Kom|lil-|jor och|ro-|sor! Kom|
w: ||||||
 F,2 _E,3 _D, | C,2 B,,2 G,2 | C,4 C,2 | [F,,C,]6 |] %27
w: ||||
w: lju- va krus-|myn- ta, kom|hjär- tans|fröjd!|
w: ||||

